public/favicon-dark.svg

<svg viewBox="0 0 112 71" fill="none" xmlns="http://www.w3.org/2000/svg">
    <path d="M36.0477 0.00305532H75.9523C80.6637 -0.0586189 85.3405 0.813975 89.7112 2.57019C94.0819 4.32641 98.0594 6.93127 101.413 10.2336C104.767 13.5359 107.429 17.4699 109.247 21.8072C111.064 26.1446 112 30.7989 112 35.5C112 40.2011 111.064 44.8554 109.247 49.1928C107.429 53.5301 104.767 57.4641 101.413 60.7664C98.0594 64.0687 94.0819 66.6736 89.7112 68.4298C85.3405 70.186 80.6637 71.0586 75.9523 70.9969H36.0477C31.3363 71.0586 26.6595 70.186 22.2888 68.4298C17.9181 66.6736 13.9406 64.0687 10.587 60.7664C7.23344 57.4641 4.57068 53.5301 2.75327 49.1928C0.935856 44.8554 -7.62939e-06 40.2011 -7.62939e-06 35.5C-7.62939e-06 30.7989 0.935856 26.1446 2.75327 21.8072C4.57068 17.4699 7.23344 13.5359 10.587 10.2336C13.9406 6.93127 17.9181 4.32641 22.2888 2.57019C26.6595 0.813975 31.3363 -0.0586189 36.0477 0.00305532ZM35.8885 61.6484C41.0728 61.6496 46.1411 60.1169 50.4523 57.2441C54.7635 54.3712 58.124 50.2874 60.1087 45.5089C62.0935 40.7305 62.6135 35.4721 61.6028 30.3988C60.5922 25.3255 58.0963 20.6652 54.4308 17.0072C50.7654 13.3493 46.095 10.858 41.0104 9.84842C35.9258 8.83887 30.6553 9.35639 25.8655 11.3356C21.0757 13.3147 16.9817 16.6666 14.1013 20.9673C11.2209 25.2681 9.68353 30.3244 9.68353 35.4969C9.68353 42.4317 12.4442 49.0825 17.3584 53.9867C22.2726 58.8908 28.938 61.6468 35.8885 61.6484Z" fill="#F5F5F5" />
    <circle r="26.5" transform="matrix(-1 0 0 1 35.5 35.5)" fill="#231F20" />
</svg>

<svg xmlns="http://www.w3.org/2000/svg" fill="none" viewBox="0 0 112 71"><path fill="#F5F5F5" d="M36.048.003h39.904c4.712-.062 9.389.811 13.76 2.567a35.589 35.589 0 0 1 11.701 7.664 35.499 35.499 0 0 1 7.834 11.573 35.438 35.438 0 0 1-7.834 38.96 35.589 35.589 0 0 1-11.702 7.663 35.652 35.652 0 0 1-13.759 2.567H36.048a35.652 35.652 0 0 1-13.76-2.567 35.589 35.589 0 0 1-11.701-7.664 35.496 35.496 0 0 1-7.834-11.573 35.43 35.43 0 0 1 0-27.386 35.496 35.496 0 0 1 7.834-11.573A35.589 35.589 0 0 1 22.289 2.57 35.652 35.652 0 0 1 36.048.003Zm-.16 61.645a26.254 26.254 0 0 0 14.564-4.404A26.164 26.164 0 0 0 60.11 45.51a26.096 26.096 0 0 0 1.494-15.11 26.132 26.132 0 0 0-7.172-13.392 26.23 26.23 0 0 0-13.42-7.159 26.266 26.266 0 0 0-15.146 1.488 26.198 26.198 0 0 0-11.764 9.631 26.11 26.11 0 0 0 3.257 33.02 26.242 26.242 0 0 0 18.53 7.661Z"/><circle r="26.5" fill="#231F20" transform="matrix(-1 0 0 1 35.5 35.5)"/></svg>
